public/images/contacts/figma.svg

<svg xmlns="http://www.w3.org/2000/svg" width="2500" height="2500" fill="none" viewBox="0 0 2500 2500"><path fill="#0acf83" d="M832.834 2500c229.996 0 416.666-186.67 416.666-416.67v-416.66H832.834c-230 0-416.667 186.66-416.667 416.66S602.834 2500 832.834 2500"/><path fill="#a259ff" d="M416.167 1250c0-230 186.667-416.667 416.667-416.667H1249.5v833.337H832.834c-230 0-416.667-186.67-416.667-416.67"/><path fill="#f24e1e" d="M416.167 416.667C416.167 186.667 602.834 0 832.834 0H1249.5v833.333H832.834c-230 0-416.667-186.666-416.667-416.666"/><path fill="#ff7262" d="M1249.5 0h416.67c230 0 416.66 186.667 416.66 416.667s-186.66 416.666-416.66 416.666H1249.5z"/><path fill="#1abcfe" d="M2082.83 1250c0 230-186.66 416.67-416.66 416.67S1249.5 1480 1249.5 1250s186.67-416.667 416.67-416.667S2082.83 1020 2082.83 1250"/></svg>

<svg width="2500" height="2500" viewBox="0 0 2500 2500" fill="none" xmlns="http://www.w3.org/2000/svg">
<path d="M832.834 2500C1062.83 2500 1249.5 2313.33 1249.5 2083.33V1666.67H832.834C602.834 1666.67 416.167 1853.33 416.167 2083.33C416.167 2313.33 602.834 2500 832.834 2500Z" fill="#0ACF83"/>
<path d="M416.167 1250C416.167 1020 602.834 833.333 832.834 833.333H1249.5V1666.67H832.834C602.834 1666.67 416.167 1480 416.167 1250Z" fill="#A259FF"/>
<path d="M416.167 416.667C416.167 186.667 602.834 6.10352e-05 832.834 6.10352e-05H1249.5V833.333H832.834C602.834 833.333 416.167 646.667 416.167 416.667Z" fill="#F24E1E"/>
<path d="M1249.5 6.10352e-05H1666.17C1896.17 6.10352e-05 2082.83 186.667 2082.83 416.667C2082.83 646.667 1896.17 833.333 1666.17 833.333H1249.5V6.10352e-05Z" fill="#FF7262"/>
<path d="M2082.83 1250C2082.83 1480 1896.17 1666.67 1666.17 1666.67C1436.17 1666.67 1249.5 1480 1249.5 1250C1249.5 1020 1436.17 833.333 1666.17 833.333C1896.17 833.333 2082.83 1020 2082.83 1250Z" fill="#1ABCFE"/>
</svg>
